X:28
T:Saucy sailor (parsons)
C:Taken down from Jas. Parsons, by S.B.G. October 1888.
%%VWML:SBG-1-1-120-0
F:http://www.vwml.org/record/SBG/1/1/120
Z:Original Sibleius Transcription by Martin and Shan Graebe
L:1/8
M:6/8
I:linebreak $
K:E
E2 E E2 B, | G2 G G2 E | (DC) D E3 | G2 A B2 G | c2 c (BG) E | (DC) D E3 |$ B2 B e2 e | 
d2 c B2 G | (cd) c B3 | E2 F G2 E | e2 B (dc) B | c2 B A2 C | D2 F E3 |] 
T:Saucy sailor (forty sailors songs)
T:From “Forty Sailor Songs” by F. Tozer
L:1/8
M:3/8
I:linebreak $
K:F
A | c/ d/ c B | A/ c/ F F | A G G | A2 A | c3/2 d/ c/ B/ | A/ c/ F F | G C E | F2 |] 
T:Saucy sailor (barrett)
T:From Barrett’s “English Folk Songs” 1896. No. 32. Words Such’s Broadside, B.
L:1/8
M:3/4
I:linebreak $
K:F
z2 E F | GE C2 F G | AG F2 A c | d2 c2 A A |$ G4 B c | d2 c2 B A | c c F2 AF | G B D2 E2 | 
F4  |] 
T:Saucy sailor (miss mason)
T:Taken down at Laughane, Carmarthenshire by Miss Mason, same as Barrett’s
L:1/8
M:3/4
I:linebreak $
K:F
E F | (GE) C2 GA | (BA) F2 F A | c2 (dc) A F | G4 B c |$ (d>cA3/2) c/ c d | B3/2 A/ F2 GA | 
B2 C2 DE | F4 z  |] 
T:Saucy sailor (sacherley)
T:Taken down from Mary Sacherley, Huckaby Br. by F.W.B.
L:1/8
M:6/8
I:linebreak $
K:G
D | DG G2 FG | Ac d3 B | Bd G2 FG | ED D3 B | dB A2 G2 | AB A3 A |$ dB A2 G2 | AB !fermata!A3 D | 
DG G3 B | cd e3 d | Bd G3 F | cA G3 z |] 



